icons/svg/poi_colored/military_range.svg

<?xml version="1.0" encoding="UTF-8" standalone="no"?>
<!-- Created with Inkscape (http://www.inkscape.org/) -->

<svg
   xmlns:dc="http://purl.org/dc/elements/1.1/"
   xmlns:cc="http://creativecommons.org/ns#"
   xmlns:rdf="http://www.w3.org/1999/02/22-rdf-syntax-ns#"
   xmlns:svg="http://www.w3.org/2000/svg"
   xmlns="http://www.w3.org/2000/svg"
   xmlns:sodipodi="http://sodipodi.sourceforge.net/DTD/sodipodi-0.dtd"
   xmlns:inkscape="http://www.inkscape.org/namespaces/inkscape"
   version="1.0"
   width="580"
   height="580"
   id="svg2"
   sodipodi:version="0.32"
   inkscape:version="0.91 r"
   sodipodi:docname="military_range.svg"
   inkscape:output_extension="org.inkscape.output.svg.inkscape">
  <metadata
     id="metadata2975">
    <rdf:RDF>
      <cc:Work
         rdf:about="">
        <dc:format>image/svg+xml</dc:format>
        <dc:type
           rdf:resource="http://purl.org/dc/dcmitype/StillImage" />
        <cc:license
           rdf:resource="http://web.resource.org/cc/PublicDomain" />
        <dc:language>en</dc:language>
        <dc:title></dc:title>
      </cc:Work>
    </rdf:RDF>
  </metadata>
  <sodipodi:namedview
     inkscape:window-height="1004"
     inkscape:window-width="1920"
     inkscape:pageshadow="2"
     inkscape:pageopacity="0.0"
     guidetolerance="10.0"
     gridtolerance="10.0"
     objecttolerance="10.0"
     borderopacity="1.0"
     bordercolor="#666666"
     pagecolor="#ffffff"
     id="base"
     inkscape:zoom="0.23041928"
     inkscape:cx="167.40046"
     inkscape:cy="486.07546"
     inkscape:window-x="1680"
     inkscape:window-y="0"
     inkscape:current-layer="svg2"
     showgrid="false"
     inkscape:window-maximized="1" />
  <defs
     id="defs4">
    <inkscape:perspective
       sodipodi:type="inkscape:persp3d"
       inkscape:vp_x="0 : 290 : 1"
       inkscape:vp_y="0 : 1000 : 0"
       inkscape:vp_z="580 : 290 : 1"
       inkscape:persp3d-origin="290 : 193.33333 : 1"
       id="perspective2441" />
    <inkscape:perspective
       id="perspective3452"
       inkscape:persp3d-origin="30 : 20 : 1"
       inkscape:vp_z="60 : 30 : 1"
       inkscape:vp_y="0 : 1000 : 0"
       inkscape:vp_x="0 : 30 : 1"
       sodipodi:type="inkscape:persp3d" />
    <symbol
       viewBox="244.5 110 489 219.9"
       id="symbol-university">
      <path
         id="path4460"
         d="M79,43l57,119c0,0,21-96,104-96s124,106,124,106l43-133l82-17L0,17L79,43z" />
      <path
         id="path4462"
         d="M94,176l-21,39"
         stroke-width="20"
         stroke="#000000"
         fill="none" />
      <path
         id="path4464"
         d="M300,19c0,10.5-22.6,19-50.5,19S199,29.5,199,19s22.6-19,50.5-19S300,8.5,300,19z" />
      <path
         id="path4466"
         d="M112,216l-16-38L64,88c0,0-9-8-4-35s16-24,16-24"
         stroke-width="20"
         stroke="#000000"
         ill="none" />
    </symbol>
    <inkscape:perspective
       id="perspective4471"
       inkscape:persp3d-origin="372.04724 : 350.78739 : 1"
       inkscape:vp_z="744.09448 : 526.18109 : 1"
       inkscape:vp_y="0 : 1000 : 0"
       inkscape:vp_x="0 : 526.18109 : 1"
       sodipodi:type="inkscape:persp3d" />
    <inkscape:perspective
       id="perspective4668"
       inkscape:persp3d-origin="6 : 4 : 1"
       inkscape:vp_z="12 : 6 : 1"
       inkscape:vp_y="0 : 1000 : 0"
       inkscape:vp_x="0 : 6 : 1"
       sodipodi:type="inkscape:persp3d" />
  </defs>
  <g
     id="g1327">
    <path
       d="M 66.275,1.768 C 24.94,1.768 1.704,23.139 1.704,66.804 L 1.704,516.927 C 1.704,557.771 22.599,579.156 63.896,579.156 L 515.92,579.156 C 557.227,579.156 578.149,558.841 578.149,516.927 L 578.149,66.804 C 578.149,24.203 557.227,1.768 514.628,1.768 C 514.624,1.768 66.133,1.625 66.275,1.768 z "
       style="fill:#111;stroke:#eee;stroke-width:3.40799999"
       id="path1329" />
  </g>
  <path
     id="path9"
     d="M 466.42887,113.57103 C 419.3034,66.445555 356.64504,40.492427 289.99886,40.492427 c -66.64618,0 -129.30235,25.953128 -176.42783,73.078603 -47.125475,47.12548 -73.078603,109.78165 -73.078603,176.42783 0,66.64618 25.953128,129.30345 73.078603,176.43001 47.12548,47.12439 109.78275,73.07971 176.42783,73.07971 66.64618,0 129.30454,-25.95423 176.43001,-73.07971 47.12439,-47.12656 73.07971,-109.78383 73.07971,-176.43001 0,-66.64618 -25.95532,-129.30345 -73.07971,-176.42783 z m -163.2739,395.18597 1.00114,-159.23768 -28.11078,-0.0307 0.62542,159.25906 C 166.36512,502.09545 77.814756,413.4935 71.244006,303.16618 l 162.074384,0.99102 0.0296,-28.11735 -162.093635,0.63697 C 77.902463,166.36085 166.51473,77.802247 276.85442,71.241816 l -1.0139,165.158614 28.10968,0.0328 -0.61363,-165.179093 c 110.30874,6.655362 198.86115,95.263503 205.42262,205.596993 l -162.49387,-1.01177 -0.0317,28.10968 162.51325,-0.61576 c -6.65432,110.30668 -95.2604,198.85909 -205.59183,205.42366 z"
     inkscape:connector-curvature="0"
     style="fill:#ffffff"
     sodipodi:nodetypes="sssscscssccccccccccccccccc" />
</svg>

<svg width="580" height="580" viewBox="0 0 580 580" fill="none" xmlns="http://www.w3.org/2000/svg">
<g clip-path="url(#clip0)">
<path d="M66.275 1.7679C24.94 1.7679 1.70398 23.1389 1.70398 66.8039V516.927C1.70398 557.771 22.599 579.156 63.896 579.156H515.92C557.227 579.156 578.149 558.841 578.149 516.927V66.8039C578.149 24.2029 557.227 1.7679 514.628 1.7679C514.624 1.7679 66.133 1.6249 66.275 1.7679Z" fill="#111111" stroke="#EEEEEE" stroke-width="3.408"/>
<path d="M466.429 113.571C419.303 66.4456 356.645 40.4924 289.999 40.4924C223.353 40.4924 160.697 66.4456 113.571 113.571C66.4456 160.697 40.4924 223.353 40.4924 289.999C40.4924 356.645 66.4456 419.302 113.571 466.429C160.697 513.553 223.354 539.509 289.999 539.509C356.645 539.509 419.303 513.554 466.429 466.429C513.553 419.302 539.509 356.645 539.509 289.999C539.509 223.353 513.553 160.695 466.429 113.571V113.571ZM303.155 508.757L304.156 349.519L276.045 349.489L276.671 508.748C166.365 502.095 77.8148 413.493 71.244 303.166L233.318 304.157L233.348 276.04L71.2544 276.677C77.9025 166.361 166.515 77.8022 276.854 71.2418L275.841 236.4L303.95 236.433L303.337 71.2541C413.645 77.9095 502.198 166.518 508.759 276.851L346.265 275.839L346.234 303.949L508.747 303.333C502.093 413.64 413.486 502.192 303.155 508.757L303.155 508.757Z" fill="white"/>
</g>
<defs>
<clipPath id="clip0">
<path d="M0 0H580V580H0V0Z" fill="white"/>
</clipPath>
</defs>
</svg>
